site/static/docs/images/icons/snippets.svg

<svg fill="none" height="26" viewBox="0 0 26 26" width="26" xmlns="http://www.w3.org/2000/svg"><g fill="#0075ff"><circle cx="13" cy="13" opacity=".15" r="13"/><path clip-rule="evenodd" d="m9.71967 8.21967c.29293-.29289.76773-.29289 1.06063 0s.2929.76777 0 1.06066l-3.71964 3.71967 3.71964 3.7197c.2929.2929.2929.7677 0 1.0606s-.7677.2929-1.06063 0l-4.25-4.25c-.29289-.2929-.29289-.7677 0-1.0606zm6.56063 0c-.2929-.29289-.7677-.29289-1.0606 0s-.2929.76777 0 1.06066l3.7196 3.71967-3.7196 3.7197c-.2929.2929-.2929.7677 0 1.0606s.7677.2929 1.0606 0l4.25-4.25c.2929-.2929.2929-.7677 0-1.0606z" fill-rule="evenodd"/></g></svg>

<svg width="26" height="26" viewBox="0 0 26 26" fill="none" xmlns="http://www.w3.org/2000/svg">
<circle opacity="0.15" cx="13" cy="13" r="13" fill="#0075ff"/>
<path fill-rule="evenodd" clip-rule="evenodd" d="M9.71967 8.21967C10.0126 7.92678 10.4874 7.92678 10.7803 8.21967C11.0732 8.51256 11.0732 8.98744 10.7803 9.28033L7.06066 13L10.7803 16.7197C11.0732 17.0126 11.0732 17.4874 10.7803 17.7803C10.4874 18.0732 10.0126 18.0732 9.71967 17.7803L5.46967 13.5303C5.17678 13.2374 5.17678 12.7626 5.46967 12.4697L9.71967 8.21967ZM16.2803 8.21967C15.9874 7.92678 15.5126 7.92678 15.2197 8.21967C14.9268 8.51256 14.9268 8.98744 15.2197 9.28033L18.9393 13L15.2197 16.7197C14.9268 17.0126 14.9268 17.4874 15.2197 17.7803C15.5126 18.0732 15.9874 18.0732 16.2803 17.7803L20.5303 13.5303C20.8232 13.2374 20.8232 12.7626 20.5303 12.4697L16.2803 8.21967Z" fill="#0075ff"/>
</svg>
